X:1
T:Title
%%score { 1 | 2 }
L:1/8
Q:1/4=106
M:4/4
K:F
V:1 treble nm="Grand Piano"
V:2 bass 
V:1
 A2 A2 c2 c>c | d2 d2 c A3 | A2 A2 c4 | [EG]2 [EA]2 F4 | A2 A>A c2 c>c | d2 d2 c A3 | A2 A2 c4 | %7
w: W.~S.~Weeden * * * *|||||||
 [EG]2 [EA]2 F4 | d2 f2 c2 A>F | c2 d2 c A3 | d2 f2 c2 A>F | A2 G2 [EG]4 | A2 A>A c2 c>c | %13
w: ||||||
 d2 d2 c A3 | A2 A2 c4 | [EG]2 [EA]2 F4 |] %16
w: |||
V:2
 [F,CF]2 [F,CF]2 [F,A,F]2 [F,A,F]>[F,A,F] | [F,B,F]2 [F,B,F]2 [F,A,F] [F,CF]3 | %2
 [F,CF]2 [F,CF]2 [F,A,F]4 | [C,B,]2 [C,B,]2 [F,A,]4 | %4
 [F,CF]2 [F,CF]>[F,CF] [F,A,F]2 [F,A,F]>[F,A,F] | [F,B,F]2 [F,B,F]2 [F,A,F] [F,CF]3 | %6
 [F,CF]2 [F,CF]2 [F,A,F]4 | [C,B,]2 [C,B,]2 [F,A,]4 | [B,F]2 [B,DF]2 [A,CF]2[K:bass] [F,CF]>[F,C] | %9
 [F,A,F]2 [F,B,F]2 [F,A,F][K:treble] [F,CF]3 | [A,B,F]2 [B,DF]2 [A,CF]2 [F,CF]>[F,C] | %11
 [G,=B,F]2 [G,B,F]2[K:bass] [C,C]4 | [F,CF]2 [F,CF]>[F,CF] [F,A,F]2 [F,A,F]>[F,A,F] | %13
 [F,B,F]2 [F,B,F]2 [F,A,F] [F,CF]3 | [F,CF]2 [F,CF]2 [F,A,F]4 | [C,B,]2 [C,B,]2 [F,A,]4 |] %16

